X:1
T:Limejuice Tub
M:4/4
L:1/4
K:G
 B/2 B c/2 d d| B A G2| G G/2A/2 B G| E D D D/2C/2| B, D DG/2-G/2|\
 E/2D/2 C D2| D/2 G A/2 B G| E F G2|
